Numix-GalliumOS/32/categories/applications-education.svg

<?xml version="1.0" encoding="UTF-8" standalone="no"?>
<svg
   xmlns:dc="http://purl.org/dc/elements/1.1/"
   xmlns:cc="http://creativecommons.org/ns#"
   xmlns:rdf="http://www.w3.org/1999/02/22-rdf-syntax-ns#"
   xmlns:svg="http://www.w3.org/2000/svg"
   xmlns="http://www.w3.org/2000/svg"
   xmlns:sodipodi="http://sodipodi.sourceforge.net/DTD/sodipodi-0.dtd"
   xmlns:inkscape="http://www.inkscape.org/namespaces/inkscape"
   viewBox="0 0 32 32"
   id="svg2"
   version="1.1"
   inkscape:version="0.91 r"
   sodipodi:docname="applications-education.svg"
   width="32"
   height="32">
  <metadata
     id="metadata20">
    <rdf:RDF>
      <cc:Work
         rdf:about="">
        <dc:format>image/svg+xml</dc:format>
        <dc:type
           rdf:resource="http://purl.org/dc/dcmitype/StillImage" />
        <dc:title />
      </cc:Work>
    </rdf:RDF>
  </metadata>
  <defs
     id="defs18" />
  <sodipodi:namedview
     pagecolor="#ffffff"
     bordercolor="#666666"
     borderopacity="1"
     objecttolerance="10"
     gridtolerance="10"
     guidetolerance="10"
     inkscape:pageopacity="0"
     inkscape:pageshadow="2"
     inkscape:window-width="1920"
     inkscape:window-height="1056"
     id="namedview16"
     showgrid="true"
     inkscape:zoom="10.439641"
     inkscape:cx="37.082949"
     inkscape:cy="-2.5124716"
     inkscape:window-x="0"
     inkscape:window-y="24"
     inkscape:window-maximized="1"
     inkscape:current-layer="svg2">
    <inkscape:grid
       type="xygrid"
       id="grid4148" />
  </sodipodi:namedview>
  <path
     style="opacity:1;fill:#89939b;fill-opacity:1;fill-rule:nonzero;stroke:none;stroke-width:1;stroke-linecap:round;stroke-linejoin:round;stroke-miterlimit:4;stroke-dasharray:none;stroke-dashoffset:0;stroke-opacity:1"
     d="M 2.6666669,11.333334 15.999999,6.0000002 29.333333,11.333334 15.999999,16.666667 Z"
     id="rect4138"
     inkscape:connector-curvature="0"
     sodipodi:nodetypes="ccccc" />
  <ellipse
     style="opacity:1;fill:#89939b;fill-opacity:1;fill-rule:nonzero;stroke:none;stroke-width:4;stroke-linecap:round;stroke-linejoin:miter;stroke-miterlimit:4;stroke-dasharray:none;stroke-dashoffset:0;stroke-opacity:1"
     id="path4166"
     cx="16"
     cy="23"
     rx="7"
     ry="3" />
  <path
     style="opacity:1;fill:#89939b;fill-opacity:1;fill-rule:nonzero;stroke:none;stroke-width:4;stroke-linecap:round;stroke-linejoin:miter;stroke-miterlimit:4;stroke-dasharray:none;stroke-dashoffset:0;stroke-opacity:1"
     d="M 9.0000001,15.482422 9.0000001,23 23,23 23,15.482422 16,18.28125 9.0000001,15.482422 Z"
     id="rect4188"
     inkscape:connector-curvature="0" />
  <rect
     style="opacity:1;fill:#89939b;fill-opacity:1;fill-rule:nonzero;stroke:none;stroke-width:4;stroke-linecap:round;stroke-linejoin:miter;stroke-miterlimit:4;stroke-dasharray:none;stroke-dashoffset:0;stroke-opacity:1"
     id="rect4200"
     width="1"
     height="5"
     x="26"
     y="12" />
  <circle
     style="opacity:1;fill:#89939b;fill-opacity:1;fill-rule:nonzero;stroke:none;stroke-width:4;stroke-linecap:round;stroke-linejoin:miter;stroke-miterlimit:4;stroke-dasharray:none;stroke-dashoffset:0;stroke-opacity:1"
     id="path4202"
     cx="26.5"
     cy="17.750002"
     r="1.25" />
  <path
     style="fill:#89939b;fill-opacity:1;fill-rule:evenodd;stroke:none;stroke-width:1px;stroke-linecap:butt;stroke-linejoin:miter;stroke-opacity:1"
     d="M 26.166666,18.7 25.5,21 l 2,0 -0.666666,-2.3 z"
     id="path4204"
     inkscape:connector-curvature="0"
     sodipodi:nodetypes="ccccc" />
</svg>

<svg xmlns="http://www.w3.org/2000/svg" viewBox="0 0 32 32">
 <path d="m 2.667 11.333 13.333 -5.333 13.333 5.333 -13.333 5.333" style="fill:#89939b;opacity:1;fill-opacity:1;stroke:none;fill-rule:nonzero"/>
 <ellipse cx="16" cy="23" rx="7" ry="3" style="fill:#89939b;opacity:1;fill-opacity:1;stroke:none;fill-rule:nonzero"/>
 <path d="m 9 15.482 0 7.518 14 0 0 -7.518 -7 2.799 -7 -2.799" style="fill:#89939b;opacity:1;fill-opacity:1;stroke:none;fill-rule:nonzero"/>
 <rect width="1" height="5" x="26" y="12" style="fill:#89939b;opacity:1;fill-opacity:1;stroke:none;fill-rule:nonzero"/>
 <circle cx="26.5" cy="17.75" r="1.25" style="fill:#89939b;opacity:1;fill-opacity:1;stroke:none;fill-rule:nonzero"/>
 <path d="m 26.17 18.7 -0.667 2.3 l 2 0 -0.667 -2.3 z" style="fill:#89939b;fill-opacity:1;stroke:none;fill-rule:evenodd"/>
</svg>
